<?xml version="1.0" encoding="UTF-8"?>
<map version="1.10" tiledversion="1.11.2" orientation="orthogonal" renderorder="right-down" width="40" height="40" tilewidth="32" tileheight="32" infinite="0" nextlayerid="3" nextobjectid="1">
 <tileset firstgid="1" name="1_Terrains_and_Fences_32x32" tilewidth="32" tileheight="32" tilecount="2368" columns="32">
  <image source="../../../Downloads/modernexteriors-win/Modern_Exteriors_32x32/ME_Theme_Sorter_32x32/1_Terrains_and_Fences_32x32.png" width="1024" height="2368"/>
 </tileset>
 <tileset firstgid="2369" name="2_City_Terrains_32x32" tilewidth="32" tileheight="32" tilecount="6077" columns="59">
  <image source="../../../Downloads/modernexteriors-win/Modern_Exteriors_32x32/ME_Theme_Sorter_32x32/2_City_Terrains_32x32.png" width="1888" height="3296"/>
 </tileset>
 <tileset firstgid="8446" name="3_City_Props_32x32" tilewidth="32" tileheight="32" tilecount="7168" columns="32">
  <image source="../../../Downloads/modernexteriors-win/Modern_Exteriors_32x32/ME_Theme_Sorter_32x32/3_City_Props_32x32.png" width="1024" height="7168"/>
 </tileset>
 <tileset firstgid="15614" name="4_Generic_Buildings_32x32" tilewidth="32" tileheight="32" tilecount="6400" columns="32">
  <image source="../../../Downloads/modernexteriors-win/Modern_Exteriors_32x32/ME_Theme_Sorter_32x32/4_Generic_Buildings_32x32.png" width="1024" height="6400"/>
 </tileset>
 <tileset firstgid="22014" name="5_Floor_Modular_Buildings_32x32" tilewidth="32" tileheight="32" tilecount="8288" columns="32">
  <image source="../../../Downloads/modernexteriors-win/Modern_Exteriors_32x32/ME_Theme_Sorter_32x32/5_Floor_Modular_Buildings_32x32.png" width="1024" height="8288"/>
 </tileset>
 <tileset firstgid="30302" name="7_Villas_32x32" tilewidth="32" tileheight="32" tilecount="1824" columns="32">
  <image source="../../../Downloads/modernexteriors-win/Modern_Exteriors_32x32/ME_Theme_Sorter_32x32/7_Villas_32x32.png" width="1024" height="1824"/>
 </tileset>
 <tileset firstgid="32126" name="6_Garage_Sales_32x32" tilewidth="32" tileheight="32" tilecount="1216" columns="32">
  <image source="../../../Downloads/modernexteriors-win/Modern_Exteriors_32x32/ME_Theme_Sorter_32x32/6_Garage_Sales_32x32.png" width="1024" height="1216"/>
 </tileset>
 <tileset firstgid="33342" name="8_Worksite_32x32" tilewidth="32" tileheight="32" tilecount="640" columns="32">
  <image source="../../../Downloads/modernexteriors-win/Modern_Exteriors_32x32/ME_Theme_Sorter_32x32/8_Worksite_32x32.png" width="1024" height="640"/>
 </tileset>
 <tileset firstgid="33982" name="9_Shopping_Center_and_Markets_32x32" tilewidth="32" tileheight="32" tilecount="2176" columns="32">
  <image source="../../../Downloads/modernexteriors-win/Modern_Exteriors_32x32/ME_Theme_Sorter_32x32/9_Shopping_Center_and_Markets_32x32.png" width="1024" height="2176"/>
 </tileset>
 <tileset firstgid="36158" name="10_Vehicles_32x32" tilewidth="32" tileheight="32" tilecount="5376" columns="32">
  <image source="../../../Downloads/modernexteriors-win/Modern_Exteriors_32x32/ME_Theme_Sorter_32x32/10_Vehicles_32x32.png" width="1024" height="5376"/>
 </tileset>
 <tileset firstgid="41534" name="11_Camping_32x32" tilewidth="32" tileheight="32" tilecount="5792" columns="32">
  <image source="../../../Downloads/modernexteriors-win/Modern_Exteriors_32x32/ME_Theme_Sorter_32x32/11_Camping_32x32.png" width="1024" height="5792"/>
 </tileset>
 <tileset firstgid="47326" name="12_Hotel_and_Hospital_32x32" tilewidth="32" tileheight="32" tilecount="1984" columns="32">
  <image source="../../../Downloads/modernexteriors-win/Modern_Exteriors_32x32/ME_Theme_Sorter_32x32/12_Hotel_and_Hospital_32x32.png" width="1024" height="1984"/>
 </tileset>
 <tileset firstgid="49310" name="13_School_32x32" tilewidth="32" tileheight="32" tilecount="3712" columns="32">
  <image source="../../../Downloads/modernexteriors-win/Modern_Exteriors_32x32/ME_Theme_Sorter_32x32/13_School_32x32.png" width="1024" height="3712"/>
 </tileset>
 <tileset firstgid="53022" name="14_Swimming_Pool_32x32" tilewidth="32" tileheight="32" tilecount="992" columns="32">
  <image source="../../../Downloads/modernexteriors-win/Modern_Exteriors_32x32/ME_Theme_Sorter_32x32/14_Swimming_Pool_32x32.png" width="1024" height="992"/>
 </tileset>
 <tileset firstgid="54014" name="15_Police_Station_32x32" tilewidth="32" tileheight="32" tilecount="2208" columns="32">
  <image source="../../../Downloads/modernexteriors-win/Modern_Exteriors_32x32/ME_Theme_Sorter_32x32/15_Police_Station_32x32.png" width="1024" height="2208"/>
 </tileset>
 <tileset firstgid="56222" name="16_Office_32x32" tilewidth="32" tileheight="32" tilecount="3040" columns="32">
  <image source="../../../Downloads/modernexteriors-win/Modern_Exteriors_32x32/ME_Theme_Sorter_32x32/16_Office_32x32.png" width="1024" height="3040"/>
 </tileset>
 <tileset firstgid="59262" name="17_Garden_32x32" tilewidth="32" tileheight="32" tilecount="6272" columns="32">
  <image source="../../../Downloads/modernexteriors-win/Modern_Exteriors_32x32/ME_Theme_Sorter_32x32/17_Garden_32x32.png" width="1024" height="6272"/>
 </tileset>
 <tileset firstgid="65534" name="18_Fire_Station_32x32" tilewidth="32" tileheight="32" tilecount="990" columns="33">
  <image source="../../../Downloads/modernexteriors-win/Modern_Exteriors_32x32/ME_Theme_Sorter_32x32/18_Fire_Station_32x32.png" width="1056" height="960"/>
 </tileset>
 <tileset firstgid="66524" name="19_Graveyard_32x32" tilewidth="32" tileheight="32" tilecount="1280" columns="32">
  <image source="../../../Downloads/modernexteriors-win/Modern_Exteriors_32x32/ME_Theme_Sorter_32x32/19_Graveyard_32x32.png" width="1024" height="1280"/>
 </tileset>
 <tileset firstgid="67804" name="20_Subway_and_Train_Station_32x32" tilewidth="32" tileheight="32" tilecount="5920" columns="32">
  <image source="../../../Downloads/modernexteriors-win/Modern_Exteriors_32x32/ME_Theme_Sorter_32x32/20_Subway_and_Train_Station_32x32.png" width="1024" height="5920"/>
 </tileset>
 <tileset firstgid="73724" name="21_Beach_32x32" tilewidth="32" tileheight="32" tilecount="4000" columns="32">
  <image source="../../../Downloads/modernexteriors-win/Modern_Exteriors_32x32/ME_Theme_Sorter_32x32/21_Beach_32x32.png" width="1024" height="4000"/>
 </tileset>
 <tileset firstgid="77724" name="22_Post_Office_32x32" tilewidth="32" tileheight="32" tilecount="960" columns="32">
  <image source="../../../Downloads/modernexteriors-win/Modern_Exteriors_32x32/ME_Theme_Sorter_32x32/22_Post_Office_32x32.png" width="1024" height="960"/>
 </tileset>
 <tileset firstgid="78684" name="23_MIlitary_Base_32x32" tilewidth="32" tileheight="32" tilecount="9120" columns="32">
  <image source="../../../Downloads/modernexteriors-win/Modern_Exteriors_32x32/ME_Theme_Sorter_32x32/23_MIlitary_Base_32x32.png" width="1024" height="9150"/>
 </tileset>
 <tileset firstgid="87804" name="24_Additional_Houses_32x32" tilewidth="32" tileheight="32" tilecount="9856" columns="32">
  <image source="../../../Downloads/modernexteriors-win/Modern_Exteriors_32x32/ME_Theme_Sorter_32x32/24_Additional_Houses_32x32.png" width="1024" height="9856"/>
 </tileset>
 <layer id="1" name="layer1" width="40" height="40">
  <data encoding="csv">
0,0,0,0,0,0,0,0,0,0,0,0,0,0,0,0,0,0,0,0,0,0,0,0,0,0,0,0,0,0,0,0,0,0,0,0,0,0,0,0,
0,0,0,0,0,0,0,0,0,0,0,0,0,0,0,0,0,0,0,0,0,0,0,0,0,0,0,0,0,0,0,0,0,0,0,0,0,0,0,0,
0,0,0,0,0,0,0,0,0,0,0,0,0,0,0,0,0,0,0,0,0,0,0,0,0,0,0,0,0,0,0,0,0,0,0,0,0,0,0,0,
0,0,0,0,0,0,0,0,0,0,0,0,0,0,0,0,0,0,0,0,0,0,0,0,0,0,0,0,0,0,0,0,0,0,0,0,0,0,0,0,
0,0,0,0,0,0,0,0,0,0,0,0,0,0,0,0,0,0,0,0,0,0,0,0,0,0,0,0,0,0,0,0,0,0,0,0,0,0,0,0,
0,0,0,0,2605,2369,2370,2370,2370,2370,2370,2370,2370,2370,2370,2370,2370,2370,2370,2370,2370,2370,2370,2370,2370,2370,2370,2370,2370,2370,2370,2370,2370,2370,2370,2370,2370,2371,0,0,
0,0,0,0,2664,2428,2379,2380,2381,2378,2379,2380,2381,2378,2379,2380,2381,2378,2379,2380,2381,2378,2379,2380,2381,2378,2379,2380,2381,2378,2379,2380,2381,2378,2379,2380,2381,2430,0,0,
0,0,0,0,2723,2428,2438,2439,2440,2437,2438,2439,2440,2437,2438,2439,2440,2437,2438,2439,2440,2437,2438,2439,2440,2437,2438,2439,2440,2437,2438,2439,2440,2437,2438,2439,2440,2430,0,0,
0,0,0,0,2782,2428,2497,260,260,260,260,260,260,260,260,260,260,260,260,260,260,260,260,260,260,260,260,260,260,260,260,260,260,260,260,260,2499,2430,0,0,
0,0,0,0,2605,2428,2556,196,258,258,258,258,258,258,258,258,258,258,258,258,258,258,258,258,258,258,258,197,260,260,260,260,260,260,260,260,2558,2430,0,0,
0,0,0,0,2664,2428,2379,227,261,261,261,261,261,261,261,261,261,261,261,261,261,261,261,261,261,261,261,225,260,260,260,260,260,260,260,260,2381,2430,0,0,
0,0,0,0,2723,2428,2438,227,261,261,261,261,261,261,261,261,261,261,261,261,261,261,261,261,261,261,261,257,258,258,258,258,258,258,258,258,2440,2430,0,0,
0,0,0,0,2782,2428,2497,227,261,261,261,261,261,261,261,261,261,261,261,261,261,261,261,261,261,261,261,261,261,261,261,261,261,261,261,261,2499,2430,0,0,
0,0,0,0,2605,2428,2556,227,261,261,261,261,261,261,261,261,261,261,261,261,261,261,261,261,261,261,261,193,194,194,194,194,194,194,194,194,2558,2430,0,0,
0,0,0,0,2664,2428,2379,227,261,261,261,261,261,261,261,261,261,261,261,261,261,261,261,261,261,193,194,229,2684354820,2684354820,2684354820,2684354820,2684354820,2684354820,2684354820,2684354820,2381,2430,0,0,
0,0,0,0,2723,2428,2438,227,261,261,261,261,261,261,261,261,261,261,261,261,261,261,261,261,261,225,226,2684354820,2684354820,2684354820,2684354820,2684354820,2684354820,2684354820,2684354820,2684354820,2440,2430,0,0,
0,0,0,0,2782,2428,2497,227,261,261,261,261,261,261,261,261,261,261,261,193,194,194,194,194,194,229,260,2684354820,2684354820,2684354820,2684354820,2684354820,2684354820,2684354820,2684354820,2684354820,2499,2430,0,0,
0,0,0,0,2605,2428,2556,227,261,261,261,261,193,194,194,194,194,194,194,229,2684354820,2684354820,2684354820,2684354820,2684354820,2684354820,2684354820,2684354820,2684354820,2684354820,2684354820,2684354820,2684354820,2684354820,2684354820,2684354820,2558,2430,0,0,
0,0,0,0,2664,2428,2379,227,261,261,261,261,225,2684354820,2379,2380,2381,2378,2379,2380,2381,2378,2379,2380,2381,2378,2379,2380,2381,2378,2379,2380,2381,2378,2379,2380,2381,2430,0,0,
0,0,0,0,2723,2428,2438,228,195,261,261,261,225,2684354820,2438,2439,2440,2437,2438,2439,2440,2437,2438,2439,2440,2437,2438,2439,2440,2437,2438,2439,2440,2437,2438,2439,2440,2430,0,0,
0,0,0,0,2782,2428,2497,2498,2499,2496,2497,2498,2499,2496,2497,2498,2499,2496,2497,2498,2499,2496,2497,2498,2499,2496,2497,2498,2499,2496,2497,2498,2499,2496,2497,2498,2499,2430,0,0,
0,0,0,0,2782,2428,2556,2557,2558,2555,2556,2557,2558,2555,2556,2557,2558,2555,2556,2557,2558,2555,2556,2557,2558,2555,2556,2557,2558,2555,2556,2557,2558,2555,2556,2557,2558,2430,0,0,
0,0,0,0,0,2428,2379,2380,2381,2378,2379,2380,2381,2378,2379,2380,2381,2378,2379,2380,2381,2378,2379,2380,2381,2378,2379,2380,2381,2378,2379,2380,2381,2378,2379,2380,2381,2430,0,0,
0,0,0,0,0,2487,2488,2488,2488,2488,2488,2488,2488,2488,2488,2488,2488,2488,2488,2488,2488,2488,2488,2488,2488,2488,2488,2488,2488,2488,2488,2488,2488,2488,2488,2488,2488,2489,0,0,
0,0,0,0,0,0,0,0,0,0,0,0,0,0,0,0,0,0,0,0,0,0,0,0,0,0,0,0,0,0,0,0,0,0,0,0,0,0,0,0,
0,0,0,0,0,0,0,0,0,0,0,0,0,0,0,0,0,0,0,0,0,0,0,0,0,0,0,0,0,0,0,0,0,0,0,0,0,0,0,0,
0,0,0,0,0,0,0,0,0,0,0,0,0,0,0,0,0,0,0,0,0,0,0,0,0,0,0,0,0,0,0,0,0,0,0,0,0,0,0,0,
0,0,0,0,0,0,0,0,0,0,0,0,0,0,0,0,0,0,0,0,0,0,0,0,0,0,0,0,0,0,0,0,0,0,0,0,0,0,0,0,
0,0,0,0,0,0,0,0,0,0,0,0,0,0,0,0,0,0,0,0,0,0,0,0,0,0,0,0,0,0,0,0,0,0,0,0,0,0,0,0,
0,0,0,0,0,0,0,0,0,0,0,0,0,0,0,0,0,0,0,0,0,0,0,0,0,0,0,0,0,0,0,0,0,0,0,0,0,0,0,0,
0,0,0,0,0,0,0,0,0,0,0,0,0,0,0,0,0,0,0,0,0,0,0,0,0,0,0,0,0,0,0,0,0,0,0,0,0,0,0,0,
0,0,0,0,0,0,0,0,0,0,0,0,0,0,0,0,0,0,0,0,0,0,0,0,0,0,0,0,0,0,0,0,0,0,0,0,0,0,0,0,
0,0,0,0,0,0,0,0,0,0,0,0,0,0,0,0,0,0,0,0,0,0,0,0,0,0,0,0,0,0,0,0,0,0,0,0,0,0,0,0,
0,0,0,0,0,0,0,0,0,0,0,0,0,0,0,0,0,0,0,0,0,0,0,0,0,0,0,0,0,0,0,0,0,0,0,0,0,0,0,0,
0,0,0,0,0,0,0,0,0,0,0,0,0,0,0,0,0,0,0,0,0,0,0,0,0,0,0,0,0,0,0,0,0,0,0,0,0,0,0,0,
0,0,0,0,0,0,0,0,0,0,0,0,0,0,0,0,0,0,0,0,0,0,0,0,0,0,0,0,0,0,0,0,0,0,0,0,0,0,0,0,
0,0,0,0,0,0,0,0,0,0,0,0,0,0,0,0,0,0,0,0,0,0,0,0,0,0,0,0,0,0,0,0,0,0,0,0,0,0,0,0,
0,0,0,0,0,0,0,0,0,0,0,0,0,0,0,0,0,0,0,0,0,0,0,0,0,0,0,0,0,0,0,0,0,0,0,0,0,0,0,0,
0,0,0,0,0,0,0,0,0,0,0,0,0,0,0,0,0,0,0,0,0,0,0,0,0,0,0,0,0,0,0,0,0,0,0,0,0,0,0,0,
0,0,0,0,0,0,0,0,0,0,0,0,0,0,0,0,0,0,0,0,0,0,0,0,0,0,0,0,0,0,0,0,0,0,0,0,0,0,0,0
</data>
 </layer>
 <layer id="2" name="layer2" width="40" height="40">
  <data encoding="csv">
0,0,0,0,0,0,0,0,0,0,0,0,0,0,0,0,0,0,0,0,0,0,0,0,0,0,0,0,0,0,0,0,0,0,0,0,0,0,0,0,
0,0,0,0,0,0,0,0,0,0,0,0,0,0,0,0,0,0,0,0,0,0,0,0,0,0,0,0,0,0,0,0,0,0,0,0,0,0,0,0,
0,0,0,0,0,0,0,0,0,0,0,0,0,0,0,0,0,0,0,0,0,0,0,0,0,0,0,0,0,0,0,0,0,0,0,0,0,0,0,0,
0,0,0,0,0,0,0,0,0,0,0,0,0,0,0,0,0,0,0,0,0,0,0,0,0,0,0,0,0,0,0,0,0,0,0,0,0,0,0,0,
0,0,0,0,0,0,0,0,0,0,0,0,0,0,0,0,0,0,0,0,0,0,0,0,0,0,0,0,0,0,0,0,0,0,0,0,0,0,0,0,
0,0,0,0,0,0,0,0,0,0,0,0,0,0,0,0,0,0,0,0,0,0,0,0,0,0,0,0,0,0,0,0,0,0,0,0,0,0,0,0,
0,0,0,0,0,0,0,0,0,0,0,0,0,0,0,0,0,0,0,0,0,0,0,0,0,0,0,0,0,0,0,0,0,0,0,0,0,0,0,0,
0,0,0,0,0,0,0,0,0,0,0,0,0,0,0,0,0,0,0,0,0,0,0,0,0,0,0,0,0,0,0,0,0,0,0,0,0,0,0,0,
0,0,0,0,0,0,0,0,0,0,0,0,0,0,0,0,0,0,0,0,0,0,0,0,0,0,0,0,0,0,0,0,0,0,0,0,0,0,0,0,
0,0,0,0,0,0,0,0,0,0,0,0,0,0,0,0,0,0,0,0,0,0,0,0,0,0,0,0,0,0,0,0,0,0,0,0,0,0,0,0,
0,0,0,0,0,0,0,0,0,0,0,0,0,0,0,0,0,0,0,0,0,0,0,0,0,0,0,0,0,0,0,0,0,0,0,0,0,0,0,0,
0,0,0,0,0,0,0,0,0,0,0,0,0,0,0,0,0,0,0,0,0,0,0,0,0,0,0,0,0,0,0,0,0,0,0,0,0,0,0,0,
0,0,0,0,0,0,0,0,0,0,0,0,0,0,0,0,0,0,0,0,0,0,0,0,0,0,0,0,0,0,0,0,0,0,0,0,0,0,0,0,
0,0,0,0,0,0,0,0,0,0,0,0,0,0,0,0,0,0,0,0,0,0,0,0,0,0,0,0,0,0,0,0,31541,31542,31543,0,0,0,0,0,
0,0,0,0,0,0,0,0,0,0,0,0,0,0,0,0,0,0,0,0,0,0,0,0,0,0,0,0,0,0,0,0,31573,31574,31575,0,0,0,0,0,
0,0,0,0,0,0,0,0,0,0,0,0,0,0,0,0,0,0,0,0,0,0,0,0,0,0,0,0,0,0,0,0,31605,31606,31607,0,0,0,0,0,
0,0,0,0,0,0,0,0,0,0,0,0,0,0,0,0,0,0,0,0,0,0,0,0,0,0,0,0,0,0,0,0,31637,31638,31639,0,0,0,0,0,
0,0,0,0,0,0,0,0,0,0,0,0,0,0,0,0,0,0,0,0,0,0,0,0,0,0,0,0,0,0,0,0,0,0,0,0,0,0,0,0,
0,0,0,0,0,0,0,0,0,0,0,0,0,0,0,0,0,0,0,0,0,0,0,0,0,0,0,0,0,0,0,0,0,0,0,0,0,0,0,0,
0,0,0,0,0,0,0,0,0,0,0,0,0,0,0,0,0,0,0,0,0,0,0,0,0,0,0,0,0,0,0,0,0,0,0,0,0,0,0,0,
0,0,0,0,0,0,0,0,0,0,0,0,0,0,0,0,0,0,0,0,0,0,0,0,0,0,0,0,0,0,0,0,0,0,0,0,0,0,0,0,
0,0,0,0,0,0,0,0,0,0,0,0,0,0,0,0,0,0,0,0,0,0,0,0,0,0,0,0,0,0,0,0,0,0,0,0,0,0,0,0,
0,0,0,0,0,0,0,0,0,0,0,0,0,0,0,0,0,0,0,0,0,0,0,0,0,0,0,0,0,0,0,0,0,0,0,0,0,0,0,0,
0,0,0,0,0,0,0,0,0,0,0,0,0,0,0,0,0,0,0,0,0,0,0,0,0,0,0,0,0,0,0,0,0,0,0,0,0,0,0,0,
0,0,0,0,0,0,0,0,0,0,0,0,0,0,0,0,0,0,0,0,0,0,0,0,0,0,0,0,0,0,0,0,0,0,0,0,0,0,0,0,
0,0,0,0,0,0,0,0,0,0,0,0,0,0,0,0,0,0,0,0,0,0,0,0,0,0,0,0,0,0,0,0,0,0,0,0,0,0,0,0,
0,0,0,0,0,0,0,0,0,0,0,0,0,0,0,0,0,0,0,0,0,0,0,0,0,0,0,0,0,0,0,0,0,0,0,0,0,0,0,0,
0,0,0,0,0,0,0,0,0,0,0,0,0,0,0,0,0,0,0,0,0,0,0,0,0,0,0,0,0,0,0,0,0,0,0,0,0,0,0,0,
0,0,0,0,0,0,0,0,0,0,0,0,0,0,0,0,0,0,0,0,0,0,0,0,0,0,0,0,0,0,0,0,0,0,0,0,0,0,0,0,
0,0,0,0,0,0,0,0,0,0,0,0,0,0,0,0,0,0,0,0,0,0,0,0,0,0,0,0,0,0,0,0,0,0,0,0,0,0,0,0,
0,0,0,0,0,0,0,0,0,0,0,0,0,0,0,0,0,0,0,0,0,0,0,0,0,0,0,0,0,0,0,0,0,0,0,0,0,0,0,0,
0,0,0,0,0,0,0,0,0,0,0,0,0,0,0,0,0,0,0,0,0,0,0,0,0,0,0,0,0,0,0,0,0,0,0,0,0,0,0,0,
0,0,0,0,0,0,0,0,0,0,0,0,0,0,0,0,0,0,0,0,0,0,0,0,0,0,0,0,0,0,0,0,0,0,0,0,0,0,0,0,
0,0,0,0,0,0,0,0,0,0,0,0,0,0,0,0,0,0,0,0,0,0,0,0,0,0,0,0,0,0,0,0,0,0,0,0,0,0,0,0,
0,0,0,0,0,0,0,0,0,0,0,0,0,0,0,0,0,0,0,0,0,0,0,0,0,0,0,0,0,0,0,0,0,0,0,0,0,0,0,0,
0,0,0,0,0,0,0,0,0,0,0,0,0,0,0,0,0,0,0,0,0,0,0,0,0,0,0,0,0,0,0,0,0,0,0,0,0,0,0,0,
0,0,0,0,0,0,0,0,0,0,0,0,0,0,0,0,0,0,0,0,0,0,0,0,0,0,0,0,0,0,0,0,0,0,0,0,0,0,0,0,
0,0,0,0,0,0,0,0,0,0,0,0,0,0,0,0,0,0,0,0,0,0,0,0,0,0,0,0,0,0,0,0,0,0,0,0,0,0,0,0,
0,0,0,0,0,0,0,0,0,0,0,0,0,0,0,0,0,0,0,0,0,0,0,0,0,0,0,0,0,0,0,0,0,0,0,0,0,0,0,0,
0,0,0,0,0,0,0,0,0,0,0,0,0,0,0,0,0,0,0,0,0,0,0,0,0,0,0,0,0,0,0,0,0,0,0,0,0,0,0,0
</data>
 </layer>
</map>
