<?xml version="1.0" encoding="UTF-8"?>
<map version="1.10" tiledversion="1.11.2" orientation="orthogonal" renderorder="right-down" width="30" height="20" tilewidth="32" tileheight="32" infinite="0" nextlayerid="3" nextobjectid="1">
 <tileset firstgid="1" name="21_Beach_32x32" tilewidth="32" tileheight="32" tilecount="4000" columns="32">
  <image source="../../../Downloads/modernexteriors-win/Modern_Exteriors_32x32/ME_Theme_Sorter_32x32/21_Beach_32x32.png" width="1024" height="4000"/>
 </tileset>
 <tileset firstgid="4001" name="1_Terrains_and_Fences_32x32" tilewidth="32" tileheight="32" tilecount="2368" columns="32">
  <image source="../../../Downloads/modernexteriors-win/Modern_Exteriors_32x32/ME_Theme_Sorter_32x32/1_Terrains_and_Fences_32x32.png" width="1024" height="2368"/>
 </tileset>
 <tileset firstgid="6369" name="8_Worksite_32x32" tilewidth="32" tileheight="32" tilecount="640" columns="32">
  <image source="../../../Downloads/modernexteriors-win/Modern_Exteriors_32x32/ME_Theme_Sorter_32x32/8_Worksite_32x32.png" width="1024" height="640"/>
 </tileset>
 <tileset firstgid="7009" name="24_Additional_Houses_32x32" tilewidth="32" tileheight="32" tilecount="9856" columns="32">
  <image source="../../../Downloads/modernexteriors-win/Modern_Exteriors_32x32/ME_Theme_Sorter_32x32/24_Additional_Houses_32x32.png" width="1024" height="9856"/>
 </tileset>
 <tileset firstgid="16865" name="17_Garden_32x32" tilewidth="32" tileheight="32" tilecount="6272" columns="32">
  <image source="../../../Downloads/modernexteriors-win/Modern_Exteriors_32x32/ME_Theme_Sorter_32x32/17_Garden_32x32.png" width="1024" height="6272"/>
 </tileset>
 <tileset firstgid="23137" name="20_Subway_and_Train_Station_32x32" tilewidth="32" tileheight="32" tilecount="5920" columns="32">
  <image source="../../../Downloads/modernexteriors-win/Modern_Exteriors_32x32/ME_Theme_Sorter_32x32/20_Subway_and_Train_Station_32x32.png" width="1024" height="5920"/>
 </tileset>
 <tileset firstgid="29057" name="22_Post_Office_32x32" tilewidth="32" tileheight="32" tilecount="960" columns="32">
  <image source="../../../Downloads/modernexteriors-win/Modern_Exteriors_32x32/ME_Theme_Sorter_32x32/22_Post_Office_32x32.png" width="1024" height="960"/>
 </tileset>
 <tileset firstgid="30017" name="13_School_32x32" tilewidth="32" tileheight="32" tilecount="3712" columns="32">
  <image source="../../../Downloads/modernexteriors-win/Modern_Exteriors_32x32/ME_Theme_Sorter_32x32/13_School_32x32.png" width="1024" height="3712"/>
 </tileset>
 <tileset firstgid="33729" name="18_Fire_Station_32x32" tilewidth="32" tileheight="32" tilecount="990" columns="33">
  <image source="../../../Downloads/modernexteriors-win/Modern_Exteriors_32x32/ME_Theme_Sorter_32x32/18_Fire_Station_32x32.png" width="1056" height="960"/>
 </tileset>
 <tileset firstgid="34719" name="2_City_Terrains_32x32" tilewidth="32" tileheight="32" tilecount="6077" columns="59">
  <image source="../../../Downloads/modernexteriors-win/Modern_Exteriors_32x32/ME_Theme_Sorter_32x32/2_City_Terrains_32x32.png" width="1888" height="3296"/>
 </tileset>
 <layer id="1" name="Tile Layer 1" width="30" height="20" visible="0">
  <data encoding="csv">
4193,4194,4194,4194,4194,4194,4194,4194,4194,4194,4194,4194,4194,4194,4194,4194,4194,4194,4194,4194,4194,4194,4194,4194,4194,4194,4194,4194,4194,4195,
4225,4226,4226,4226,4226,4226,4226,4226,4226,4226,4226,4226,4226,4226,4226,4226,4226,4226,4226,4226,4226,4226,4226,4226,4226,4226,4226,4226,4226,4227,
4225,4226,4226,4226,16898,16899,16899,16899,16899,16899,16899,16899,16899,16868,4226,4226,4226,4226,4226,4226,4226,4226,4226,4226,4226,4226,4226,4226,4226,4227,
4225,4226,4226,4226,16930,4226,4226,4226,4226,4226,4226,4226,4226,4226,4226,4226,4226,4226,4226,4226,4226,4226,4226,4226,4226,4226,4226,4226,4226,4227,
4225,4226,4226,4226,16930,4226,4226,4226,4226,4226,4226,4226,4226,4226,4226,4226,4226,4226,4226,4226,4226,4226,4226,4226,4226,4226,4226,4226,4226,4227,
4225,4226,4226,4226,16930,4226,4226,4226,4226,4226,4226,4226,4226,16932,4226,4226,4226,4226,4226,4226,4226,4226,4226,4226,4226,4226,4226,4226,4226,4227,
4225,4226,4226,4226,16962,16963,16963,16963,16963,16963,16963,16963,16963,16964,4226,4226,4226,4226,4226,4226,4226,4226,4226,4226,4226,4226,4226,4226,4226,4227,
4225,4226,4226,4226,4226,4196,4197,4226,4226,4226,4226,4226,4226,4226,4226,4226,4226,4226,4226,4226,4226,4226,4226,4226,4226,4226,4226,4226,4226,4227,
4225,4226,4226,4226,4226,4228,4229,4226,4226,4226,4226,4226,4226,4226,4226,4226,4226,4226,4226,4226,4226,4226,4226,4226,4226,4226,4226,4226,4226,4227,
4225,4226,4226,4226,4226,4226,4226,4226,4226,4226,4226,4226,4226,4226,4226,4226,4226,4226,4226,4226,4226,4226,4226,4226,4226,4226,4226,4226,4226,4227,
4225,4226,4226,4226,4226,4226,4226,4226,4226,4226,4226,4226,4226,4226,4226,4226,4226,4226,4226,4969,4970,4971,4226,4226,4226,4226,4226,4226,4226,4227,
4225,4226,4226,4226,4226,4226,4226,4226,4226,4226,4226,4226,4226,4226,4226,4226,4226,4226,4226,5001,5002,5003,4226,4226,4226,4226,4226,4226,4226,4227,
4225,4226,4226,4226,4226,4226,4226,4226,4226,4226,4226,4226,4226,4226,4226,4226,4226,4226,4226,5033,5034,5035,4226,4226,4226,4226,4226,4226,4226,4227,
4225,4226,4226,4226,4226,4226,4226,4226,4226,4226,4196,4197,4226,4226,4226,4226,4226,4226,4226,4226,4226,4226,4226,4226,4226,4226,4226,4226,4226,4227,
4225,4226,4226,4226,4226,4226,4226,4226,4226,4226,4228,4229,4226,4226,4226,4226,4226,4226,4226,4226,4226,4226,4226,4226,4226,4226,4226,4226,4226,4227,
4225,4226,4226,4226,4226,4226,4226,4226,4226,4226,4226,4226,4226,4226,4226,4226,4226,4226,4226,4226,4226,4226,4226,4226,4226,4226,4226,4226,4226,4227,
4225,4226,4226,4226,4226,4226,4226,4226,4226,4226,4226,4226,4226,4226,4226,4226,4226,4226,4226,4226,4226,4226,4226,4226,4226,4226,4226,4226,4226,4227,
4225,4226,4226,4226,4226,4226,4226,4226,4226,4226,4226,4226,4226,4226,4226,4226,4226,4226,4226,4226,4226,4226,4226,4226,4226,4226,4226,4226,4226,4227,
4225,4226,4226,4226,4226,4226,4226,4226,4226,4226,4226,4226,4226,4226,4226,4226,4226,4226,4226,4226,4226,4226,4226,4226,4226,4226,4226,4226,4226,4227,
4257,4258,4258,4258,4258,4258,4258,4258,4258,4258,4258,4258,4258,4258,4258,4258,4258,4258,4258,4258,4258,4258,4258,4258,4258,4258,4258,4258,4258,4259
</data>
 </layer>
 <layer id="2" name="Tile Layer 2" width="30" height="20">
  <data encoding="csv">
0,0,0,0,0,0,0,0,0,0,0,0,0,0,0,0,0,0,0,0,0,0,0,0,0,0,0,0,0,0,
0,0,0,0,0,0,0,0,0,0,0,0,0,0,0,0,0,0,0,0,0,0,0,0,0,0,0,0,0,0,
0,0,0,0,0,0,0,0,0,0,0,0,0,0,0,0,0,0,0,0,0,0,0,0,0,0,0,0,0,0,
0,0,0,0,0,17262,17263,17264,17265,17266,17267,0,0,0,0,0,0,0,0,0,0,0,0,0,0,0,0,0,0,0,
0,0,0,0,0,17294,17295,17296,17297,17298,17299,0,0,0,0,0,0,0,0,0,0,0,0,0,0,0,0,0,0,0,
0,0,0,0,0,17326,17327,17328,17329,17330,17331,0,0,0,0,0,0,0,0,0,0,0,0,0,0,0,0,0,0,0,
0,0,0,0,0,0,0,0,0,0,0,0,0,0,0,0,0,0,0,0,0,0,0,0,0,0,0,0,0,0,
0,0,0,0,0,0,0,0,0,0,0,0,0,0,0,0,0,0,0,0,0,0,0,0,0,0,0,0,0,0,
0,0,0,0,0,0,0,0,0,0,0,0,0,17389,17390,17391,17392,0,0,0,0,0,0,0,0,0,0,0,0,0,
0,0,0,0,0,0,0,0,0,0,0,0,0,17421,17422,17423,17424,0,0,0,0,0,0,0,0,0,0,0,0,0,
0,0,0,0,0,0,0,0,0,0,0,0,0,17453,17454,17455,17456,0,0,0,0,0,0,0,0,0,0,0,0,0,
0,0,0,0,0,0,0,0,0,0,0,0,0,17485,17486,17487,17488,0,0,0,0,0,0,0,0,0,0,0,0,0,
0,0,0,0,0,0,0,0,0,0,0,0,0,17517,17518,17519,17520,0,0,0,0,0,0,0,0,0,0,0,0,0,
0,0,0,0,0,0,0,0,0,0,0,0,0,0,0,0,0,0,0,0,0,0,0,0,0,0,0,0,0,0,
0,0,0,0,0,0,0,0,0,0,0,0,0,0,0,0,0,0,0,0,0,0,0,0,0,0,0,0,0,0,
0,0,0,0,0,0,0,0,0,0,0,0,0,0,0,0,0,0,0,0,0,0,0,0,0,0,0,0,0,0,
0,0,0,0,0,0,0,0,0,0,0,0,0,0,0,0,0,0,0,0,0,0,0,0,0,0,0,0,0,0,
0,0,0,0,0,0,0,0,0,0,0,0,0,0,0,0,0,0,0,0,0,0,0,0,0,0,0,0,0,0,
0,0,0,0,0,0,0,0,0,0,0,0,0,0,0,0,0,0,0,0,0,0,0,0,0,0,0,0,0,0,
0,0,0,0,0,0,0,0,0,0,0,0,0,0,0,0,0,0,0,0,0,0,0,0,0,0,0,0,0,0
</data>
 </layer>
</map>
